public/assets/standards/sci-ai/why-sci-feat-2.svg

<svg xmlns="http://www.w3.org/2000/svg" width="400" height="390" fill="none" viewBox="0 0 400 390"><path fill="#ebf2d4" d="M260.58 12.79C244.34 6.7 227.4 1.61 210.06 1.68c-23.37.1-45.58 9.53-66.84 19.24C104.09 38.78 73.23 66.77 41.15 95.2c-25.97 23.01-30.23 70.73-29.45 103.15.09 3.91.19 7.84.37 11.77.55 12.09 1.84 24.14 6.08 35.41 6.79 18.07 22.55 33.32 34.45 48.19 12.88 16.1 25.51 29.53 42.85 41.02 19.63 13.01 47.71 35.36 71.93 37.41 30.49 2.58 53.83 3.82 83.14-5.31 31.21-9.73 65.42-23.93 87.88-48.81 11.78-13.05 19.47-31.67 28.23-46.84 17.1-29.6 24.19-61.52 19.79-95.54-4.61-35.61-18.6-62.91-33.35-94.74-18.95-40.88-52.25-53.03-92.48-68.11z"/><path fill="#a8c653" d="m276.86 105.83-6.69 15.4-2.83-3.23 10.42-1.27 3.73-.46c-.96 1.39-12.54 18.42-13.85 20.32l9.01-19.07 1.76 2.44-10.1 2.88-3.96 1.13c.74-2.84 4.51-17.47 5.33-20.62l7.17 2.47z"/><path stroke="#a8c653" stroke-linecap="round" stroke-linejoin="round" stroke-width="1.44" d="M210.65 167.47H12.3v83.44h198.35z"/><path fill="#a8c653" d="M72.66 183.38H32.43v12.19h40.23zm118.42 0H78.33v12.19h112.75zm-83.59 20.24H32.43v12.19h75.06zm83.59 0h-75.06v12.19h75.06z"/><path fill="#007872" d="M53.98 223.78H31.87v12.19h22.11zm27.58 0H59.45v12.19h22.11z"/><path fill="#fff" d="M109.09 223.78H86.98v12.19h22.11zm27.85 0h-22.11v12.19h22.11zm27.03 0h-22.11v12.19h22.11zm27.85 0h-22.11v12.19h22.11z"/><path fill="#006d68" d="M211.34 153.68H11.61v14.92h199.73z"/><path fill="#fff" d="m206.332 158.62-1.57-1.57-6.661 6.661 1.57 1.57z"/><path fill="#fff" d="m204.77 165.282 1.57-1.57-6.661-6.661-1.57 1.57zm-16.14-6.982v5.96h-6.69v-5.96zm1.03-1.02h-8.74v8.01h8.74zm-17.23 6.24h-8.74v1.76h8.74z"/><path fill="#00544f" d="M118.29 201.87h260.36V349.1c0 13.52-10.98 24.5-24.5 24.5H142.79c-13.52 0-24.5-10.98-24.5-24.5z"/><path stroke="#006d68" stroke-miterlimit="10" stroke-width="7.41" d="M194.57 216.69v-26.68c0-15.97 12.95-28.92 28.92-28.92h52.12c15.97 0 28.92 12.95 28.92 28.92v26.68"/><path fill="#003834" d="M118.29 201.87h260.36v81.37c0 10.32-8.38 18.7-18.7 18.7H137c-10.32 0-18.7-8.38-18.7-18.7v-81.37z"/><path fill="#006d68" d="M275.91 302.91h16.77c0-24.42-19.79-44.21-44.21-44.21s-44.21 19.79-44.21 44.21h16.77c0-15.15 12.28-27.44 27.44-27.44s27.44 12.28 27.44 27.44"/><path fill="#aecc53" d="M275.91 302.91v1.02-.02c0 .19-.01.38-.02.56v.18c0 .08 0 .16-.01.23-.01.15-.03.3-.04.46-1.23 14.02-12.99 25.01-27.33 25.01s-26.45-11.32-27.38-25.64c0-.09-.01-.19-.02-.3-.03-.63-.04-1.5-.04-1.5H204.3s.01 1.2.04 1.79c.94 23.59 20.36 42.42 44.17 42.42s43.03-18.64 44.16-42.05c.03-.72.05-2.16.05-2.16z"/><path fill="#aecc53" d="M252.37 299h-7.81v7.81h7.81z"/><path fill="#003834" d="M221.13 299h-7.81v7.81h7.81zm62.48 0h-7.81v7.81h7.81zm-39.05 31.18v7.81h7.81v-7.81zm.01-62.34v7.81h7.81v-7.81z"/><path fill="#fff" d="M228.94 291.19V299h-7.81v7.81h7.81v7.81h7.81v-23.43zm39.05 7.81v-7.81h-7.81v23.43h7.81v-7.81h7.81V299zm-15.62-15.62v-7.81h-7.81v7.81h-7.81v7.81h23.43v-7.81zm3.91 31.24h-19.53v7.81h7.81v7.82h7.81v-7.82h7.81v-7.81z"/><path fill="#006d68" d="M161.99 278.47h-.01a7.41 7.41 0 0 0-7.41 7.41v24.71a7.41 7.41 0 0 0 7.41 7.41h.01a7.41 7.41 0 0 0 7.41-7.41v-24.71a7.41 7.41 0 0 0-7.41-7.41m172.97 0h-.01a7.41 7.41 0 0 0-7.41 7.41v24.71a7.41 7.41 0 0 0 7.41 7.41h.01a7.41 7.41 0 0 0 7.41-7.41v-24.71a7.41 7.41 0 0 0-7.41-7.41"/><circle cx="338.09" cy="270.68" r=".955" fill="#a8c653"/><path stroke="#a8c653" stroke-linecap="round" stroke-linejoin="round" stroke-width="1.91" d="M338.09 265.66v-97.84"/><circle cx="338.09" cy="165.32" r=".955" fill="#a8c653"/><path fill="#a8c653" d="M341.69 270.5c0 1.99-1.61 3.6-3.6 3.6s-3.6-1.61-3.6-3.6 1.61-3.6 3.6-3.6 3.6 1.61 3.6 3.6"/><path fill="#fff" d="M79.19 184.46V70.94l146.42-.33v113.85z"/><path fill="#acca53" d="M225.11 71.11v112.85H79.69V71.44zm1-1-147.42.34v114.52h147.42z"/><path fill="#006d68" d="M204.04 127.53s-23.12 32.97-51.64 32.97-51.64-32.97-51.64-32.97 23.12-32.97 51.64-32.97 51.64 32.97 51.64 32.97"/><path fill="#006d68" d="M204.04 127.53s-23.12 32.97-51.64 32.97-51.64-32.97-51.64-32.97 23.12-32.97 51.64-32.97 51.64 32.97 51.64 32.97"/><path fill="#003834" d="M152.4 152.8c14.111 0 25.55-11.439 25.55-25.55s-11.439-25.55-25.55-25.55-25.55 11.439-25.55 25.55 11.439 25.55 25.55 25.55"/><path fill="#fff" d="M152.4 137.1c5.44 0 9.85-4.41 9.85-9.85s-4.41-9.85-9.85-9.85-9.85 4.41-9.85 9.85 4.41 9.85 9.85 9.85"/><path fill="#a8c653" d="M152.4 109.75c9.65 0 17.5 7.85 17.5 17.5s-7.85 17.5-17.5 17.5-17.5-7.85-17.5-17.5 7.85-17.5 17.5-17.5m0-3.56c-11.63 0-21.06 9.43-21.06 21.06s9.43 21.06 21.06 21.06 21.06-9.43 21.06-21.06-9.43-21.06-21.06-21.06"/><path fill="#003834" d="M226.11 55.36H78.69v17.09h147.42z"/><path fill="#a8c653" d="m220.378 61.03-1.796-1.795-7.629 7.63 1.796 1.796z"/><path fill="#a8c653" d="m218.579 68.659 1.796-1.797-7.63-7.63-1.796 1.797zM200.1 60.66v6.82h-7.67v-6.82zm1.18-1.17h-10.02v9.17h10.02zm-19.73 7.15h-10.02v2.02h10.02z"/><path stroke="#006d68" stroke-miterlimit="10" stroke-width="7.41" d="M194.57 190.02c0-15.97 12.95-28.92 28.92-28.92h52.12c15.97 0 28.92 12.95 28.92 28.92"/><path stroke="#006d68" stroke-miterlimit="10" stroke-width="1.18" d="M356.88 55.36h-63.23v108.37h85V80.82z"/><path fill="#00544f" d="M356.65 80.1h21.6l-21.6-25z"/><path fill="#a8c653" d="M367.76 95.08h-60.82v6.27h60.82zm0 20.8h-60.82v6.27h60.82zm0 20.79h-60.82v6.27h60.82z"/><path fill="#acca53" d="M277.17 49.68h-8.49c-4.98 0-9.03-4.05-9.03-9.03s4.05-9.03 9.03-9.03h8.49c4.98 0 9.03 4.05 9.03 9.03s-4.05 9.03-9.03 9.03m-8.49-14.45c-2.99 0-5.42 2.43-5.42 5.42s2.43 5.42 5.42 5.42h8.49c2.99 0 5.42-2.43 5.42-5.42s-2.43-5.42-5.42-5.42z"/><path fill="#acca53" d="M274.73 47.87h-3.61V69.1h3.61z"/><path fill="#acca53" d="M272.92 61.65h-6.31v3.61h6.31z"/></svg>

<svg width="400" height="390" viewBox="0 0 400 390" fill="none" xmlns="http://www.w3.org/2000/svg">
<path d="M260.58 12.79C244.34 6.7 227.4 1.61 210.06 1.68C186.69 1.78 164.48 11.21 143.22 20.92C104.09 38.78 73.23 66.77 41.15 95.2C15.18 118.21 10.92 165.93 11.7 198.35C11.79 202.26 11.89 206.19 12.07 210.12C12.62 222.21 13.91 234.26 18.15 245.53C24.94 263.6 40.7 278.85 52.6 293.72C65.48 309.82 78.11 323.25 95.45 334.74C115.08 347.75 143.16 370.1 167.38 372.15C197.87 374.73 221.21 375.97 250.52 366.84C281.73 357.11 315.94 342.91 338.4 318.03C350.18 304.98 357.87 286.36 366.63 271.19C383.73 241.59 390.82 209.67 386.42 175.65C381.81 140.04 367.82 112.74 353.07 80.91C334.12 40.03 300.82 27.88 260.59 12.8L260.58 12.79Z" fill="#EBF2D4"/>
<path d="M276.86 105.83L270.17 121.23L267.34 118L277.76 116.73L281.49 116.27C280.53 117.66 268.95 134.69 267.64 136.59L276.65 117.52L278.41 119.96L268.31 122.84L264.35 123.97C265.09 121.13 268.86 106.5 269.68 103.35L276.85 105.82L276.86 105.83Z" fill="#A8C653"/>
<path d="M210.65 167.47H12.2999V250.91H210.65V167.47Z" stroke="#A8C653" stroke-width="1.44" stroke-linecap="round" stroke-linejoin="round"/>
<path d="M72.6601 183.38H32.4301V195.57H72.6601V183.38Z" fill="#A8C653"/>
<path d="M191.08 183.38H78.33V195.57H191.08V183.38Z" fill="#A8C653"/>
<path d="M107.49 203.62H32.4301V215.81H107.49V203.62Z" fill="#A8C653"/>
<path d="M191.08 203.62H116.02V215.81H191.08V203.62Z" fill="#A8C653"/>
<path d="M53.98 223.78H31.87V235.97H53.98V223.78Z" fill="#007872"/>
<path d="M81.5599 223.78H59.45V235.97H81.5599V223.78Z" fill="#007872"/>
<path d="M109.09 223.78H86.98V235.97H109.09V223.78Z" fill="white"/>
<path d="M136.94 223.78H114.83V235.97H136.94V223.78Z" fill="white"/>
<path d="M163.97 223.78H141.86V235.97H163.97V223.78Z" fill="white"/>
<path d="M191.82 223.78H169.71V235.97H191.82V223.78Z" fill="white"/>
<path d="M211.34 153.68H11.61V168.6H211.34V153.68Z" fill="#006D68"/>
<path d="M206.332 158.62L204.762 157.05L198.101 163.711L199.671 165.281L206.332 158.62Z" fill="white"/>
<path d="M204.77 165.282L206.34 163.712L199.679 157.051L198.109 158.621L204.77 165.282Z" fill="white"/>
<path d="M188.63 158.3V164.26H181.94V158.3H188.63ZM189.66 157.28H180.92V165.29H189.66V157.28Z" fill="white"/>
<path d="M172.43 163.52H163.69V165.28H172.43V163.52Z" fill="white"/>
<path d="M118.29 201.87H378.65V349.1C378.65 362.62 367.67 373.6 354.15 373.6H142.79C129.27 373.6 118.29 362.62 118.29 349.1V201.87Z" fill="#00544F"/>
<path d="M194.57 216.69V190.01C194.57 174.04 207.52 161.09 223.49 161.09H275.61C291.58 161.09 304.53 174.04 304.53 190.01V216.69" stroke="#006D68" stroke-width="7.41" stroke-miterlimit="10"/>
<path d="M118.29 201.87H378.65V283.24C378.65 293.56 370.27 301.94 359.95 301.94H137C126.68 301.94 118.3 293.56 118.3 283.24V201.87H118.29Z" fill="#003834"/>
<path d="M275.91 302.91H292.68C292.68 278.49 272.89 258.7 248.47 258.7C224.05 258.7 204.26 278.49 204.26 302.91H221.03C221.03 287.76 233.31 275.47 248.47 275.47C263.63 275.47 275.91 287.75 275.91 302.91Z" fill="#006D68"/>
<path d="M275.91 302.91C275.91 302.91 275.91 303.04 275.91 303.21C275.91 303.21 275.91 303.22 275.91 303.23C275.91 303.3 275.91 303.38 275.91 303.47C275.91 303.51 275.91 303.54 275.91 303.58C275.91 303.62 275.91 303.66 275.91 303.7C275.91 303.77 275.91 303.85 275.91 303.93C275.91 303.93 275.91 303.92 275.91 303.91C275.91 304.1 275.9 304.29 275.89 304.47C275.89 304.47 275.89 304.48 275.89 304.49C275.89 304.55 275.89 304.6 275.89 304.65C275.89 304.73 275.89 304.81 275.88 304.88C275.87 305.03 275.85 305.18 275.84 305.34C274.61 319.36 262.85 330.35 248.51 330.35C234.17 330.35 222.06 319.03 221.13 304.71C221.13 304.62 221.12 304.52 221.11 304.41C221.08 303.78 221.07 302.91 221.07 302.91H204.3C204.3 302.91 204.31 304.11 204.34 304.7C205.28 328.29 224.7 347.12 248.51 347.12C272.32 347.12 291.54 328.48 292.67 305.07C292.7 304.35 292.72 302.91 292.72 302.91H275.95H275.91Z" fill="#AECC53"/>
<path d="M252.37 299H244.56V306.81H252.37V299Z" fill="#AECC53"/>
<path d="M221.13 299H213.32V306.81H221.13V299Z" fill="#003834"/>
<path d="M283.61 299H275.8V306.81H283.61V299Z" fill="#003834"/>
<path d="M244.56 330.18V337.99H252.37V330.18H244.56Z" fill="#003834"/>
<path d="M244.57 267.84V275.65H252.38V267.84H244.57Z" fill="#003834"/>
<path d="M228.94 291.19V299H221.13V306.81H228.94V310.12V314.62H236.75V310.12V306.81V299V291.19H228.94Z" fill="white"/>
<path d="M267.99 299V296.71V291.19H260.18V296.71V299V306.81V314.62H267.99V306.81H275.8V299H267.99Z" fill="white"/>
<path d="M252.37 283.38V275.57H244.56V283.38H236.75V291.19H244.56H252.37H260.18V283.38H252.37Z" fill="white"/>
<path d="M256.28 314.62H252.37H244.56H242.55H236.75V322.43H242.55H244.56V330.25H252.37V322.43H256.28H260.18V314.62H256.28Z" fill="white"/>
<path d="M161.99 278.47H161.98C157.888 278.47 154.57 281.788 154.57 285.88V310.59C154.57 314.682 157.888 318 161.98 318H161.99C166.082 318 169.4 314.682 169.4 310.59V285.88C169.4 281.788 166.082 278.47 161.99 278.47Z" fill="#006D68"/>
<path d="M334.96 278.47H334.95C330.858 278.47 327.54 281.788 327.54 285.88V310.59C327.54 314.682 330.858 318 334.95 318H334.96C339.052 318 342.37 314.682 342.37 310.59V285.88C342.37 281.788 339.052 278.47 334.96 278.47Z" fill="#006D68"/>
<circle cx="338.09" cy="270.68" r="0.955" fill="#A8C653"/>
<path d="M338.09 265.66V167.82" stroke="#A8C653" stroke-width="1.91" stroke-linecap="round" stroke-linejoin="round"/>
<circle cx="338.09" cy="165.32" r="0.955" fill="#A8C653"/>
<path d="M341.69 270.5C341.69 272.49 340.08 274.1 338.09 274.1C336.1 274.1 334.49 272.49 334.49 270.5C334.49 268.51 336.1 266.9 338.09 266.9C340.08 266.9 341.69 268.51 341.69 270.5Z" fill="#A8C653"/>
<path d="M79.1899 184.46V70.94L225.61 70.61V184.46H79.1899Z" fill="white"/>
<path d="M225.11 71.11V183.96H79.6899V71.44L225.11 71.11ZM226.11 70.11L78.6899 70.45V184.97H226.11V70.11Z" fill="#ACCA53"/>
<path d="M204.04 127.53C204.04 127.53 180.92 160.5 152.4 160.5C123.88 160.5 100.76 127.53 100.76 127.53C100.76 127.53 123.88 94.56 152.4 94.56C180.92 94.56 204.04 127.53 204.04 127.53Z" fill="#006D68"/>
<path d="M204.04 127.53C204.04 127.53 180.92 160.5 152.4 160.5C123.88 160.5 100.76 127.53 100.76 127.53C100.76 127.53 123.88 94.56 152.4 94.56C180.92 94.56 204.04 127.53 204.04 127.53Z" fill="#006D68"/>
<path d="M152.4 152.8C166.511 152.8 177.95 141.361 177.95 127.25C177.95 113.139 166.511 101.7 152.4 101.7C138.289 101.7 126.85 113.139 126.85 127.25C126.85 141.361 138.289 152.8 152.4 152.8Z" fill="#003834"/>
<path d="M152.4 137.1C157.84 137.1 162.25 132.69 162.25 127.25C162.25 121.81 157.84 117.4 152.4 117.4C146.96 117.4 142.55 121.81 142.55 127.25C142.55 132.69 146.96 137.1 152.4 137.1Z" fill="white"/>
<path d="M152.4 109.75C162.05 109.75 169.9 117.6 169.9 127.25C169.9 136.9 162.05 144.75 152.4 144.75C142.75 144.75 134.9 136.9 134.9 127.25C134.9 117.6 142.75 109.75 152.4 109.75ZM152.4 106.19C140.77 106.19 131.34 115.62 131.34 127.25C131.34 138.88 140.77 148.31 152.4 148.31C164.03 148.31 173.46 138.88 173.46 127.25C173.46 115.62 164.03 106.19 152.4 106.19Z" fill="#A8C653"/>
<path d="M226.11 55.36H78.6899V72.45H226.11V55.36Z" fill="#003834"/>
<path d="M220.378 61.0308L218.582 59.2348L210.953 66.8645L212.749 68.6605L220.378 61.0308Z" fill="#A8C653"/>
<path d="M218.579 68.6586L220.375 66.8625L212.745 59.2329L210.949 61.0289L218.579 68.6586Z" fill="#A8C653"/>
<path d="M200.1 60.66V67.48H192.43V60.66H200.1ZM201.28 59.49H191.26V68.66H201.28V59.49Z" fill="#A8C653"/>
<path d="M181.55 66.64H171.53V68.66H181.55V66.64Z" fill="#A8C653"/>
<path d="M194.57 190.02C194.57 174.05 207.52 161.1 223.49 161.1H275.61C291.58 161.1 304.53 174.05 304.53 190.02" stroke="#006D68" stroke-width="7.41" stroke-miterlimit="10"/>
<path d="M356.88 55.36H293.65V163.73H378.65V80.82L356.88 55.36Z" stroke="#006D68" stroke-width="1.18" stroke-miterlimit="10"/>
<path d="M356.65 80.1H378.25L356.65 55.1V80.1Z" fill="#00544F"/>
<path d="M367.76 95.08H306.94V101.35H367.76V95.08Z" fill="#A8C653"/>
<path d="M367.76 115.88H306.94V122.15H367.76V115.88Z" fill="#A8C653"/>
<path d="M367.76 136.67H306.94V142.94H367.76V136.67Z" fill="#A8C653"/>
<path d="M277.17 49.68H268.68C263.7 49.68 259.65 45.63 259.65 40.65C259.65 35.67 263.7 31.62 268.68 31.62H277.17C282.15 31.62 286.2 35.67 286.2 40.65C286.2 45.63 282.15 49.68 277.17 49.68ZM268.68 35.23C265.69 35.23 263.26 37.66 263.26 40.65C263.26 43.64 265.69 46.07 268.68 46.07H277.17C280.16 46.07 282.59 43.64 282.59 40.65C282.59 37.66 280.16 35.23 277.17 35.23H268.68Z" fill="#ACCA53"/>
<path d="M274.73 47.87H271.12V69.1H274.73V47.87Z" fill="#ACCA53"/>
<path d="M272.92 61.65H266.61V65.26H272.92V61.65Z" fill="#ACCA53"/>
</svg>
